X: 5
T: The Kesh
R: jig
M: 6/8
L: 1/8
K: Dmaj
A|:D3 DEF | E3 EFA | BAA dAA | BAF AFE |
D3 DEF | E3 EFA | BAA dAF | EFE D3 :||
|: F3 AFA | (3BcdB AFD |F3 AFD | EFE EDE |
F3 AFA | (3BcdB AFA | d(3Bcd ede | fdc d3 :||


Tune 55	Setting 24970

